libs/icons/src/svg/trash.svg

<svg width="16" height="16" viewBox="0 0 16 16" fill="none" xmlns="http://www.w3.org/2000/svg">
<g clip-path="url(#clip0_3_3771)">
<path fill-rule="evenodd" clip-rule="evenodd" d="M5.33333 0C4.96514 0 4.66667 0.298477 4.66667 0.666667V2.66667H0.666667C0.298477 2.66667 0 2.96514 0 3.33333C0 3.70152 0.298477 4 0.666667 4H15.3333C15.7015 4 16 3.70152 16 3.33333C16 2.96514 15.7015 2.66667 15.3333 2.66667H11.3333V0.666667C11.3333 0.298477 11.0349 0 10.6667 0H5.33333ZM10 2.66667V1.33333H6V2.66667H10Z" fill="#202327"/>
<path d="M2.66667 5.33333C3.03486 5.33333 3.33333 5.63181 3.33333 6V14C3.33333 14.1768 3.40357 14.3464 3.5286 14.4714C3.65362 14.5964 3.82319 14.6667 4 14.6667H12C12.1768 14.6667 12.3464 14.5964 12.4714 14.4714C12.5964 14.3464 12.6667 14.1768 12.6667 14V6C12.6667 5.63181 12.9651 5.33333 13.3333 5.33333C13.7015 5.33333 14 5.63181 14 6V14C14 14.5304 13.7893 15.0391 13.4142 15.4142C13.0391 15.7893 12.5304 16 12 16H4C3.46957 16 2.96086 15.7893 2.58579 15.4142C2.21071 15.0391 2 14.5304 2 14V6C2 5.63181 2.29848 5.33333 2.66667 5.33333Z" fill="#202327"/>
<path d="M10.4714 7.51859C10.7318 7.77894 10.7318 8.20105 10.4714 8.4614L8.94281 9.98999L10.4714 11.5186C10.7318 11.7789 10.7318 12.201 10.4714 12.4614C10.2111 12.7217 9.78895 12.7217 9.52859 12.4614L8 10.9328L6.4714 12.4614C6.21106 12.7217 5.78895 12.7217 5.5286 12.4614C5.26825 12.201 5.26825 11.7789 5.5286 11.5186L7.05719 9.98999L5.5286 8.4614C5.26825 8.20105 5.26825 7.77894 5.5286 7.51859C5.78895 7.25824 6.21106 7.25824 6.4714 7.51859L8 9.04718L9.52859 7.51859C9.78895 7.25824 10.2111 7.25824 10.4714 7.51859Z" fill="#202327"/>
</g>
<defs>
<clipPath id="clip0_3_3771">
<rect width="16" height="16" fill="white"/>
</clipPath>
</defs>
</svg>

<svg xmlns="http://www.w3.org/2000/svg" viewBox="0 0 16 16" class="sageicon"><path fill-rule="evenodd" d="M5.333 0a.667.667 0 0 0-.666.667v2h-4A.667.667 0 1 0 .667 4h14.666a.667.667 0 1 0 0-1.333h-4v-2A.667.667 0 0 0 10.667 0H5.333ZM10 2.667V1.333H6v1.334h4Z"/><path d="M2.667 5.333c.368 0 .666.299.666.667v8a.667.667 0 0 0 .667.667h8a.667.667 0 0 0 .667-.667V6A.667.667 0 1 1 14 6v8a2 2 0 0 1-2 2H4a2 2 0 0 1-2-2V6c0-.368.298-.667.667-.667Z"/><path d="M10.471 7.519c.26.26.26.682 0 .942L8.943 9.99l1.528 1.529a.667.667 0 1 1-.942.942L8 10.933 6.471 12.46a.667.667 0 0 1-.942-.942L7.057 9.99 5.53 8.461a.667.667 0 0 1 .942-.942L8 9.047 9.529 7.52c.26-.26.682-.26.942 0Z"/></svg>
